X: 2326
T: CAMP HORNPIPE
%R: hornpipe, reel
B: James Kerr "Merry Melodies" v.2 p.36 #326
Z: 2016 John Chambers <jc:trillian.mit.edu>
M: C
L: 1/8
K: D
(uAG) |:\
FAdf edfd | edfd ABAG |\
[1,3 FAdf edfd gfed cBAG :|\
[2,4 FAdf agec | d2d2 d2 :|
|: (ufg) |\
agfe d2(ga) | bagf e2(ef) |\
gfed cegb | agfe d2(AG) |\
FAdf edfd | edfd ABAG |\
FAdf agec | d2d2 d2 :|
